public/icons/mask2.svg

<svg width="676" height="210" viewBox="0 0 676 210" fill="none" xmlns="http://www.w3.org/2000/svg">
<g clip-path="url(#clip0_108_339)">
<path d="M675.601 85.6831L675.178 72.8192H534.051C540.618 48.9896 562.083 32.3632 587.607 32.3632C602.852 32.3632 617.105 38.4816 627.748 49.5828L631.528 53.5233H672.907L655.984 32.6682C639.146 11.9148 614.224 0.00854492 587.598 0.00854492C539.051 0.00854492 499.553 39.507 499.553 88.0558C499.553 89.6321 499.604 91.2591 499.697 93.0302L500.375 105.114H501.621V105.174H640.553C633.299 127.927 612.122 143.757 587.607 143.757C573.133 143.757 559.388 138.164 548.915 128.012L545.194 124.41H502.714L521.009 145.57C537.788 164.976 562.058 176.103 587.607 176.103C636.155 176.103 675.652 136.605 675.652 88.0558C675.652 87.2593 675.627 86.4712 675.601 85.6831Z" fill="black"/>
<path d="M94.7567 0.296495V0.0168457H88.0537C88.0114 0.0168457 87.969 0.0168457 87.9266 0.0168457H81.8253V0.262598C37.2434 3.46586 1.11857 40.6932 0.0254221 86.1574L0 210.008L32.3539 184.586V156.155C46.4123 167.663 63.657 174.578 81.8084 175.874V176.12H87.8588C87.9182 176.111 87.9775 176.12 88.0453 176.12H94.6042V175.849C140.084 172.476 176.091 134.376 176.091 88.0726C176.091 41.7694 140.169 3.73703 94.7567 0.296495ZM88.1978 143.748H87.808C57.2082 143.621 32.3539 118.69 32.3539 88.0557C32.3539 57.4213 57.2337 32.4732 87.7063 32.363H88.1978C118.823 32.4477 143.745 57.4298 143.745 88.0557C143.745 118.682 118.823 143.672 88.1978 143.748Z" fill="black"/>
<path d="M355.605 66.4465C355.605 66.4465 355.596 66.472 355.588 66.4804C355.588 66.472 355.596 66.455 355.605 66.4465Z" fill="black"/>
<path d="M334.208 38.5154C318.327 15.3638 291.676 0.144043 261.551 0.144043C233.765 0.144043 208.165 12.8978 191.327 35.1426L175.785 55.6588H216.105L219.918 51.3454C230.536 39.3628 245.713 32.4902 261.551 32.4902C287.075 32.4902 308.548 49.1166 315.107 72.9462H244.179V105.301H314.497C307.243 128.054 286.067 143.884 261.543 143.884C245.815 143.884 230.706 137.088 220.105 125.232L216.291 120.97H175.853L191.556 141.537C208.394 163.595 233.909 176.239 261.551 176.239C291.727 176.239 318.404 160.968 334.275 137.766C343.936 123.639 349.596 106.555 349.596 88.1913C349.596 69.8277 343.902 52.6589 334.208 38.5154Z" fill="black"/>
<path d="M494.291 77.1578C485.147 1.62698 388.365 -27.1854 339.572 31.4309C347.097 41.7525 352.639 53.6079 355.605 66.4464C379.688 11.0164 461.979 27.6937 462.615 88.0811C461.979 148.443 379.781 165.154 355.639 109.784C352.69 122.622 347.181 134.486 339.673 144.808C396.339 211.322 504.57 163.748 494.299 77.1494L494.291 77.1578Z" fill="black"/>
</g>
<defs>
<clipPath id="clip0_108_339">
<rect width="675.652" height="210" fill="white"/>
</clipPath>
</defs>
</svg>

<svg width="676" height="210" fill="none" xmlns="http://www.w3.org/2000/svg"><g clip-path="url(#a)" fill="#000"><path d="m675.601 85.683-.423-12.864H534.051c6.567-23.83 28.032-40.456 53.556-40.456 15.245 0 29.498 6.119 40.141 17.22l3.78 3.94h41.379l-16.923-20.855C639.146 11.915 614.224.008 587.598.008c-48.547 0-88.045 39.499-88.045 88.048 0 1.576.051 3.203.144 4.974l.678 12.084h1.246v.06h138.932c-7.254 22.753-28.431 38.583-52.946 38.583-14.474 0-28.219-5.593-38.692-15.745l-3.721-3.602h-42.48l18.295 21.16c16.779 19.406 41.049 30.533 66.598 30.533 48.548 0 88.045-39.498 88.045-88.047 0-.797-.025-1.585-.051-2.373ZM94.757.296v-.28H81.825v.247C37.243 3.466 1.12 40.693.025 86.157L0 210.008l32.354-25.422v-28.431c14.058 11.508 31.303 18.423 49.454 19.719v.246h6.05c.06-.009.12 0 .187 0h6.56v-.271c45.479-3.373 81.486-41.473 81.486-87.776 0-46.304-35.922-84.336-81.334-87.777Zm-6.56 143.452h-.389c-30.6-.127-55.454-25.058-55.454-55.692 0-30.635 24.88-55.583 55.352-55.693h.492c30.625.085 55.547 25.067 55.547 55.693 0 30.626-24.922 55.616-55.547 55.692ZM355.605 66.447s-.009.025-.017.033c0-.008.008-.025.017-.034Z"/><path d="M334.208 38.515C318.327 15.364 291.676.144 261.551.144c-27.786 0-53.386 12.754-70.224 34.999l-15.542 20.516h40.32l3.813-4.314c10.618-11.982 25.795-18.855 41.633-18.855 25.524 0 46.997 16.627 53.556 40.456h-70.928v32.355h70.318c-7.254 22.753-28.43 38.583-52.954 38.583-15.728 0-30.837-6.796-41.438-18.652l-3.814-4.262h-40.438l15.703 20.567c16.838 22.058 42.353 34.702 69.995 34.702 30.176 0 56.853-15.271 72.724-38.473a87.566 87.566 0 0 0 15.321-49.575 87.734 87.734 0 0 0-15.388-49.676Z"/><path d="M494.291 77.158C485.147 1.627 388.365-27.185 339.572 31.43c7.525 10.321 13.067 22.177 16.033 35.015 24.083-55.43 106.374-38.752 107.01 21.635-.636 60.362-82.834 77.073-106.976 21.703a96.09 96.09 0 0 1-15.966 35.024c56.666 66.514 164.897 18.94 154.626-67.659l-.008.009Z"/></g><defs><clipPath id="a"><path fill="#fff" d="M0 0h675.652v210H0z"/></clipPath></defs></svg>
